packages/dnb-ui-lib/assets/icons/calendar.svg

<svg width="17" height="17" viewBox="0 0 17 17" fill="none" xmlns="http://www.w3.org/2000/svg">
<path fill-rule="evenodd" clip-rule="evenodd" d="M4.90522 0C5.3452 0 5.70188 0.356677 5.70188 0.796661V2.05428H11.2983V0.796661C11.2983 0.356677 11.6549 0 12.0949 0C12.5349 0 12.8916 0.356677 12.8916 0.796661V2.05428H14.61C15.9299 2.05428 16.9999 3.12431 16.9999 4.44426V6.95937V14.61C16.9999 15.93 15.9299 17 14.61 17H2.38998C1.07003 17 0 15.93 0 14.61V6.95937V4.44426C0 3.12431 1.07003 2.05428 2.38998 2.05428H4.10856V0.796661C4.10856 0.356677 4.46524 0 4.90522 0ZM11.2983 3.6476V4.39154C11.2983 4.83152 11.6549 5.1882 12.0949 5.1882C12.5349 5.1882 12.8916 4.83152 12.8916 4.39154V3.6476H14.61C15.0499 3.6476 15.4066 4.00428 15.4066 4.44426V6.16271H1.59332V4.44426C1.59332 4.00428 1.95 3.6476 2.38998 3.6476H4.10856V4.39154C4.10856 4.83152 4.46524 5.1882 4.90522 5.1882C5.3452 5.1882 5.70188 4.83152 5.70188 4.39154V3.6476H11.2983ZM1.59332 7.75603H15.4066V14.61C15.4066 15.05 15.0499 15.4067 14.61 15.4067H2.38998C1.95 15.4067 1.59332 15.05 1.59332 14.61V7.75603Z" fill="black"/>
</svg>

<svg width="16" height="16" viewBox="0 0 17 17" fill="none" xmlns="http://www.w3.org/2000/svg"><path fill-rule="evenodd" clip-rule="evenodd" d="M4.905 0c.44 0 .797.357.797.797v1.257h5.596V.797a.797.797 0 111.594 0v1.257h1.718A2.39 2.39 0 0117 4.444V14.61A2.39 2.39 0 0114.61 17H2.39A2.39 2.39 0 010 14.61V4.444a2.39 2.39 0 012.39-2.39h1.719V.797c0-.44.356-.797.796-.797zm6.393 3.648v.744a.797.797 0 101.594 0v-.744h1.718c.44 0 .797.356.797.796v1.719H1.593V4.444c0-.44.357-.796.797-.796h1.719v.744a.797.797 0 001.593 0v-.744h5.596zM1.593 7.756h13.814v6.854c0 .44-.357.797-.797.797H2.39a.797.797 0 01-.797-.797V7.756z" fill="#000"/></svg>
